!!!!SEGMENT: pl-wnifc--13846--048_anonim--piesni-polskie-i-ruskie-ludu-galicyjskiego-48-ach-moja-marysiu.krn
!!!kernsource:
!!!cenid: 18xx:3270
!!!COM: Anonim
!!!COM-rismID: pe30004985
!!!CDT:
!!!CNT:
!!!GTL: Pieśni polskie i ruskie ludu galicyjskiego
!!!OTL: 48. Ach moja Marysiu
!!!PDT: 1833
!!!AGN:
!!!SMS-siglum: PL-Wnifc
!!!SMS-shelfmark: 13846
!!!SMS-shelfwork: 048 G
!!!SMS-variant:
!!!SMS-altvar:
!!!NIFC-rismSourceID: 1001037039
!!!NIFC-islandoraID:
!!!URL-pdf-islandora:
!!!URL-scan:
!!!ONB-nifc:
!!!OMD: Krakowiak.
!!!AIN: 1 piano 1 vox
!!!key: d
**kern	**kern	**dynam	**kern	**text
*part2	*part2	*part2	*part1	*part1
*staff3	*staff2	*	*staff1	*staff1
*I"Fortepian	*I"Fortepian	*	*I"Głos	*
*Ipiano	*Ipiano	*	*Ivox	*
*ICklav	*ICklav	*	*ICvox	*
*IGacmp	*IGacmp	*	*IGsolo	*
*clefF4	*clefG2	*	*clefG2	*
*k[b-]	*k[b-]	*	*k[b-]	*
*d:	*d:	*	*d:	*
*M2/4	*M2/4	*	*M2/4	*
=1	=1	=1	=1	=1
!	!	!	!LO:TX:a:t=D.b.Б.\n574.	!
8D\L 8F\	8.dd|>\L	.	8.dd\	Ach
8AA\ 8A\	.	.	.	.
.	16ee|>\Jk	.	16ee\	mo-
8D\ 8F\	8ff|>\L	.	8ff\	-ja
8AA\J 8A\	8ff\J	.	8ff\	Ma-
=2	=2	=2	=2	=2
8C\L 8G\	8ff\	.	8ff\	-ry-
8AA\ 8A\	4ee\^<	.	(4ee\	-siu,
8E\ 8G\	.	.	.	.
8AA\J 8A\	8cc#X\	.	8cc#X\)	.
!!LO:LB:g=original
=3	=3	=3	=3	=3
8D\L 8F\	(16dd\LL	.	(16dd\LL	mo-
.	16cc#X\JJ)	.	16cc#X\JJ)	.
8AA\ 8A\	(16dd\LL	.	(16dd\LL	-je
.	16ee\JJ)	.	16ee\JJ)	.
8D\ 8F\	8ff\L	.	8ff\	si-
8AA\J 8A\	8ff\J	.	8ff\	-we
=4	=4	=4	=4	=4
8C#X\L 8G\	8ff\	.	8ff\	o-
8AA\ 8A\	4ee\^<	sf	4ee\	-czy
8E\ 8G\	.	.	.	.
8AA\J 8A\	8r	.	8r	.
=5	=5	=5	=5	=5
8D\L 8F\	8ff\L	.	8ff\	le-
.	8qgg/	.	8qgg/	.
8A\	(16ff\L	.	(16ff\LL	-dwie
.	16ee\JJ)	.	16ee\JJ)	.
8D\ 8F\	4dd\^<	.	4dd\	mi
8A\J	.	.	.	.
!!LO:LB:g=original
=6	=6	=6	=6	=6
8AA\L 8E\ 8G\	8cc#X\	.	8cc#X\	ser-
8A\	4ee\^<	.	4ee\	-du-
8AA\ 8E\ 8G\	.	.	.	.
8A\J	8cc#\	.	8cc#\	-szko
=7	=7	=7	=7	=7
8C#X\L 8E\ 8G\	8a/L	.	8a/	do
8A\	8a/J	.	8a/	cię
8AA/ 8E/	8a/L	.	8a/	nie
8E\J 8G\ 8A\	16bn\L	.	16bn\LL	wy-
.	16cc#X\JJ	.	16cc#X\JJ	.
=8	=8	=8	=8	=8
8D\L 8F\	4dd\	.	4dd\	-sko-
8A\	.	.	.	.
.	8qa/	.	.	.
8D\ 8F\	(8.aa\L	.	(8.aa\L	-czy,
8A\J	.	.	.	.
.	16gg\Jk)	.	16gg\Jk)	.
!!LO:LB:g=original
=9	=9	=9	=9	=9
*tremolo	*	*	*	*
8D\L 8F\	8ff\L	.	8ff\	le-
.	8qgg/	.	.	.
8F\ 8A\	16ff\L	.	(16ff\LL	-dwie
.	16ee\JJ	.	16ee\JJ)	.
8D\ 8F\	4dd\	.	4dd\	mi
8F\J 8A\	.	.	.	.
*Xtremolo	*	*	*	*
=10	=10	=10	=10	=10
8AA\L 8E\ 8G\ 8A\	8cc#X\	.	8cc#X\	ser-
8A\	4ee\	.	4ee\	-du-
8E\ 8G\	.	.	.	.
8A\J	8cc#\	.	8cc#\	-szko
=11	=11	=11	=11	=11
8AA\L 8C#X\ 8E\ 8G\	8a/L	.	8a/	do
8A\	8a/	.	8a/	cię
8AA/ 8E/ 8G/	8a/J	.	8a/	nie
8A\J	(16bn\LL	.	(16bn/LL	wy-
.	16cc#X\JJ)	.	16cc#X/JJ)	.
!!LO:PB:g=original
=12	=12	=12	=12	=12
8D\L 8F\	8dd\	.	8dd\	-sko-
8A\	4dd\	.	4dd\	-czy.
8D\ 8F\	.	.	.	.
8A\J	8r	.	8r	.
!!LO:LB:g=original
==	==	==	==	==
*-	*-	*-	*-	*-
!!!system-decoration: s1,{(s2,s3)}
!!!RDF**kern: < = below
!!!RDF**kern: > = above
!!!RDF**kern: | = vertical stroke
!!!ENC: Marta Chmielewska
!!!END: 2021-11-10
!!!YEC: Copyright 2022 Narodowy Instytut Fryderyka Chopina (https://polishscores.org)
!!!YEM: Licence CC BY 4.0 (https://creativecommons.org/licenses/by/4.0)
